svg/Pictogram/pictograms-aem-0039-fasten_seat_belt.svg

<?xml version="1.0" encoding="ISO-8859-1" standalone="yes"?>
<svg height="304.014" width="304.015">
  <metadata>
    <rdf:RDF xmlns:cc="http://web.resource.org/cc/" xmlns:dc="http://purl.org/dc/elements/1.1/" xmlns:rdf="http://www.w3.org/1999/02/22-rdf-syntax-ns#">
      <cc:Work rdf:about="">
        <dc:title></dc:title>
        <dc:description></dc:description>
        <dc:subject>
          <rdf:Bag>
            <rdf:li></rdf:li>
          </rdf:Bag>
        </dc:subject>
        <dc:publisher>
          <cc:Agent rdf:about="http://www.unece.org/trans/danger/publi/ghs/pictograms.html">
            <dc:title>Source: UNECE GHS of Classification and Labeling of Chemicals, Source: AEM Pictorial Database, Source: AEM Pictorial Database, Source: AEM Pictorial Database, Source: AEM Pictorial Database</dc:title>
          </cc:Agent>
        </dc:publisher>
        <dc:creator>
          <cc:Agent>
            <dc:title></dc:title>
          </cc:Agent>
        </dc:creator>
        <dc:rights>
          <cc:Agent>
            <dc:title></dc:title>
          </cc:Agent>
        </dc:rights>
        <dc:date></dc:date>
        <dc:format>image/svg+xml</dc:format>
        <dc:type rdf:resource="http://purl.org/dc/dcmitype/StillImage"/>
        <cc:license rdf:resource="http://en.wikipedia.org/wiki/Public_domain"/>
        <dc:language>en</dc:language>
      </cc:Work>
    </rdf:RDF>
  </metadata>
  <defs><marker id="ArrowEnd" markerHeight="3" markerUnits="strokeWidth" markerWidth="4" orient="auto" refX="0" refY="5" viewBox="0 0 10 10"><path d="M 0 0 L 10 5 L 0 10 z"/></marker><marker id="ArrowStart" markerHeight="3" markerUnits="strokeWidth" markerWidth="4" orient="auto" refX="10" refY="5" viewBox="0 0 10 10"><path d="M 10 0 L 0 5 L 10 10 z"/></marker> </defs>
  <g id="g2958" transform="matrix(1.3532768,0,0,1.3532781,-53.207834,-52.192858)">
    <path d="M 104.218 174.541L 122.468 115.916L 139.151 109.319C 142.327 107.963 147.983 103.92 144.718 100.573C 134.417 90.0024 133.065 75.7214 143.304 66.8854C 145.671 64.8464 148.327 63.8704 151.155 63.8464L 152.78 63.8464C 155.604 63.8704 158.261 64.8464 160.628 66.8854C 170.866 75.7214 169.483 90.0024 159.183 100.573C 155.917 103.924 161.577 107.963 164.749 109.319L 181.468 115.916L 199.702 174.745L 197.741 185.979C 209.3 190.155 219.972 195.639 229.358 202.139L 222.987 210.342C 214.444 204.151 204.776 198.846 194.362 194.842L 176.968 239.166L 158.468 240.166L 173.429 200.916C 175.718 195.916 160.468 197.62 151.968 197.62C 143.468 197.62 128.218 195.916 130.503 200.916L 145.468 240.166L 126.468 238.166L 109.323 194.901C 98.9094 198.905 89.5734 204.19 81.0264 210.381L 74.6514 202.194C 84.0384 195.694 94.6084 190.127 106.163 185.952L 104.218 174.541zM 197.601 185.834C 183.464 180.346 168.483 177.374 152.218 177.374C 135.964 177.374 120.538 180.721 106.163 185.952L 109.448 194.713C 122.776 189.557 136.999 186.311 152.022 186.311C 167.05 186.311 181.405 189.495 194.483 194.905L 197.601 185.834" style="stroke:none; fill-rule:evenodd; fill:#000000"/>
    <path d="M 29.6204 265.393L 2.62042 265.393" style="stroke:#000000; stroke-width:0.5; fill:none"/>
    <path d="M 38.6204 274.393L 38.6204 301.393" style="stroke:#000000; stroke-width:0.5; fill:none"/>
    <path d="M 29.6204 38.6204L 2.62042 38.6204" style="stroke:#000000; stroke-width:0.5; fill:none"/>
    <path d="M 38.6204 29.6204L 38.6204 2.62042" style="stroke:#000000; stroke-width:0.5; fill:none"/>
    <path d="M 274.394 38.6204L 301.394 38.6204" style="stroke:#000000; stroke-width:0.5; fill:none"/>
    <path d="M 265.394 29.6204L 265.394 2.62042" style="stroke:#000000; stroke-width:0.5; fill:none"/>
    <path d="M 274.394 265.393L 301.394 265.393" style="stroke:#000000; stroke-width:0.5; fill:none"/>
    <path d="M 265.394 274.393L 265.394 301.393" style="stroke:#000000; stroke-width:0.5; fill:none"/>
  </g>
</svg>

<svg viewBox="0 0 304.01 304.01"><g transform="matrix(1.35328 0 0 1.35328-53.21-52.19)"><path d="m104.22 174.54l18.25-58.62 16.683-6.597c3.176-1.356 8.832-5.399 5.567-8.746-10.301-10.571-11.653-24.852-1.414-33.688 2.367-2.039 5.02-3.02 7.851-3.039h1.625c2.824.024 5.481 1 7.848 3.039 10.238 8.836 8.855 23.12-1.445 33.688-3.266 3.351 2.394 7.39 5.566 8.746l16.719 6.597 18.234 58.829-1.961 11.234c11.559 4.176 22.23 9.66 31.617 16.16l-6.371 8.203c-8.543-6.191-18.211-11.496-28.625-15.5l-17.394 44.32-18.5 1 14.961-39.25c2.289-5-12.961-3.296-21.461-3.296-8.5 0-23.75-1.704-21.465 3.296l14.965 39.25-19-2-17.15-43.26c-10.414 4-19.75 9.289-28.3 15.48l-6.375-8.187c9.387-6.5 19.957-12.07 31.512-16.242l-1.945-11.411m93.38 11.293c-14.14-5.488-29.12-8.46-45.38-8.46-16.254 0-31.68 3.347-46.05 8.578l3.285 8.761c13.328-5.156 27.551-8.402 42.574-8.402 15.03 0 29.383 3.184 42.46 8.594l3.118-9.07" fill-rule="evenodd"/></g></svg>
